X:1
T:Title
%%score ( 1 2 ) ( 3 4 )
L:1/8
Q:1/4=112
M:3/4
K:F
V:1 treble nm="Midi_74"
V:2 treble 
V:3 bass nm="Midi_74"
V:4 bass 
V:1
"^Ilkley (L.M.)""^Jesu, Thou joy of loving hearts""^John Bacchus Dykes\n(1823-76)""^Latin 12th cent.\ntrans. Ray Palmer (1808-87)" A2 A2 A2 | %1
 B4 B2 | A4 G2 | G6 | G2 G2 A2 | B4 G2 | D4 E2 | F6 || F2 F2 G2 | A4 d2 | c4 B2 | A6 | A2 A2 A2 | %13
 A4 F2 | G4 G2 | F6 |] %16
V:2
 F2 F2 F2 | G4 G2 | F4 F2 | E6 | _E2 E2 E2 | D4 D2 | D4 C2 | C6 || F2 F2 C2 | C4 F2 | F4 E2 | F6 | %12
w: ||||||||From the best|bliss that|earth im-|parts|
w: ||||||||To them that|seek Thee,|Thou art|good,|
w: ||||||||We drink of|Thee, the|foun- tain-|head,|
w: ||||||||Glad when Thy|gra- cious|smile we|see,|
w: ||||||||Chase the dark|night of|sin a-|way,|
 F2 F2 F2 | F4 F2 | (F2 D2) E2 | F6 |] %16
w: We turn un-|filled to|Thee * a-|gain.|
w: To them that|find Thee,|all * in|all.|
w: And thirst our|souls from|Thee * to|fill.|
w: Blest when our|faith can|hold * Thee|fast.|
w: Shed o'er the|world Thy|ho\- * ly|light.|
V:3
 C2 C2 C2 | C4 C2 | (C2 D2) =B,2 | C6 | C2 C2 C2 | B,4 B,2 | B,4 G,2 | A,6 || A,2 A,2 C2 | C4 B,2 | %10
w: Je- su, Thou|joy of|lov\- * ing|hearts,|Thou fount of|life, Thou|light of|men,|||
w: Thy truth un-|changed hath|e\- * ver|stood;|Thou sav- est|those that|on Thee|call;|||
w: We taste Thee,|O Thou|liv\- * ing|bread,|And long to|feast up-|on Thee|still;|||
w: Our rest- less|spi- rits|yearn * for|Thee,|Wher- e'er our|change- ful|lot is|cast;|||
w: O Je- su,|e- ver|with * us|stay,|Make all our|mo- ments|calm and|bright;|||
 A,4 G,2 | F,6 | D2 C2 =B,2 | C4 A,2 | C4 B,2 | A,6 |] %16
w: ||||||
w: ||||||
w: ||||||
w: ||||||
w: ||||||
V:4
 F,2 F,2 F,2 | E,4 E,2 | (F,2 D,2) G,2 | C,6 | C,2 C,2 F,2 | B,,4 B,,2 | G,,4 C,2 | F,6 || %8
 D,2 D,2 E,2 | F,4 B,,2 | C,4 ^C,2 | D,6 | D,2 D,2 D,2 | C,4 C,2 | C,4 C,2 | F,6 |] %16

